!! 00000] TT[00
!! NN
!!!OTL: Yiduo molihua
!!!ARE: Asia, China,ÿHenan, Shangcheng
!! Ethnic Group: Han
!! IV, 148
!!!SCT: C0393
!!!YEM: Copyright 1995, estate of Helmut Schaffrath.
**kern
*ICvox
*Ivox
*M2/4
*k[f#]
*G:
{8b
16b
16dd
8ee
16gg
16ee
=1
2dd
=2
8b
16b
16a
16b
16dd
16b
16a
=3
2g}
=4
{8e
4g
8a
=5
8b
8ee
8dd
8b
=6
8a
8a
16b
16dd
16b
16a
=7
2g}
=8
{16b
16a
8g
4a
=9
8.a
16b
8dd
16b
16dd
=10
8ee
16dd
16b
16a}
{16b
16a
16g
=11
8dd
4e
8g
=12
8.a
16b
16a
16g
8e
=13
2d}
==
!!!AGN: Xiaodiao, Shidiao, Molihua diao. Guniang chujia
!! Variante aus Henan
!!    Wenig Verzierungen.
!!!ONB: ESAC (Essen Associative Code) Database: CHINA
!!!AMT: simple duple
!!!AIN: vox
!!!EED: Helmut Schaffrath
!!!EEV: 1.0
*-
